public/icons/loading.svg

<svg width="393" height="72" viewBox="0 0 393 72" fill="none" xmlns="http://www.w3.org/2000/svg">
<g clip-path="url(#clip0_115_60)">
<path d="M393 72H0V0H393V72ZM286.887 24.4805C285.154 25.3071 283.833 26.3865 282.927 27.7197C282.02 29.0264 281.566 30.4667 281.566 32.04C281.566 33.6934 282.047 35.1738 283.007 36.4805C283.967 37.7603 285.354 38.8532 287.167 39.7598V46.8799C285.487 46.1866 284.114 45.3995 283.047 44.5195L281.727 46.3203C282.26 46.8003 282.994 47.3199 283.927 47.8799C284.887 48.4399 285.967 48.9471 287.167 49.4004V55.4805H295.127V51.0801C296.007 51.1601 296.94 51.2002 297.927 51.2002H298.406V55.4805H306.366V49.7998C308.34 48.9998 309.847 47.9196 310.887 46.5596C311.927 45.173 312.446 43.6131 312.446 41.8799C312.446 40.0934 311.927 38.5736 310.887 37.3203C309.873 36.067 308.353 35.0135 306.326 34.1602V27.1602C307.606 27.7468 308.633 28.3601 309.406 29L310.767 27.2002C310.34 26.8002 309.74 26.3732 308.967 25.9199C308.193 25.4666 307.313 25.0396 306.326 24.6396V18.4805H298.366V22.8799C297.486 22.7999 296.54 22.7598 295.526 22.7598H294.847V18.4805H286.887V24.4805ZM84.0732 42.5996C84.0732 45.5063 85.1 47.6667 87.1533 49.0801C89.2333 50.4933 92.6864 51.2002 97.5127 51.2002C100.713 51.2002 103.273 50.9605 105.193 50.4805C107.113 49.9738 108.553 49.1065 109.513 47.8799C110.473 46.6265 110.953 44.8663 110.953 42.5996V23H108.593V42.5996C108.593 46.2263 107.046 48.04 103.953 48.04C102.566 48.04 101.446 47.6131 100.593 46.7598C99.7663 45.8797 99.3535 44.4927 99.3535 42.5996V23H84.0732V42.5996ZM247.215 22.7598C244.228 22.7598 241.815 23.0005 239.975 23.4805C238.135 23.9605 236.468 24.9472 234.975 26.4404C232.655 28.7338 231.495 32.2403 231.495 36.96C231.495 41.4132 232.788 44.9329 235.375 47.5195C236.682 48.8262 238.241 49.7737 240.055 50.3604C241.895 50.9203 244.282 51.2002 247.215 51.2002L251.255 51.1602C256.108 51.0535 260.455 51 264.295 51V37.3203H252.055V48.4004C249.975 48.4003 248.442 47.1061 247.455 44.5195C246.709 42.4929 246.335 39.9731 246.335 36.96C246.335 35.12 246.495 33.3998 246.815 31.7998C247.162 29.9867 247.735 28.5337 248.535 27.4404C249.468 26.1872 250.641 25.5597 252.055 25.5596C253.575 25.5596 254.829 26.0266 255.815 26.96C256.802 27.8666 257.521 28.9603 257.975 30.2402C258.455 31.4935 258.749 32.72 258.855 33.9199H261.135C261.055 32.5066 260.748 31.0662 260.215 29.5996C259.708 28.1064 259.001 26.8397 258.095 25.7998C257.001 24.5466 255.601 23.7337 253.895 23.3604C252.215 22.9604 249.988 22.7598 247.215 22.7598ZM47.1201 51H61.1602V23H47.1201V51ZM61.1602 36.96L69.4404 51H83.5596L74.6797 36.96L81.6797 23H67.7197L61.1602 36.96ZM113.175 51H115.614V32.3604L129.614 51H139.015V23H136.614V37L124.935 23H113.175V51ZM141.261 51H154.301V23H141.261V51ZM156.573 51H185.813V48.5996H170.613V23H156.573V51ZM188.097 51H201.137V23H188.097V51ZM203.409 51H205.849V32.3604L219.849 51H229.249V23H226.849V37L215.169 23H203.409V51ZM266.534 51H279.574V23H266.534V51ZM310.512 25.3604H321.032V51H335.032V25.3604H345.592V23H310.512V25.3604ZM295.606 42.5195C298.46 43.3195 299.887 44.4399 299.887 45.8799C299.887 46.7065 299.486 47.3465 298.687 47.7998C297.887 48.2531 296.7 48.4804 295.127 48.4805V42.3604L295.606 42.5195ZM298.366 31.8398L297.326 31.5596C295.46 31.0529 294.193 30.5467 293.526 30.04C292.86 29.5068 292.526 28.8934 292.526 28.2002C292.526 27.2935 292.967 26.5867 293.847 26.0801C294.753 25.5468 296.047 25.2803 297.727 25.2803H298.366V31.8398ZM154 14.1074C154 10.3483 148.944 10.0353 147.5 12.9766C146.056 10.0353 141 10.3483 141 14.1074C141 17.8668 147.5 21 147.5 21C147.501 20.9994 154 17.8665 154 14.1074Z" fill="#F2ECE6"/>
<path d="M147.5 12.9764C146.056 10.035 141 10.3483 141 14.1077C141 17.8671 147.5 21 147.5 21C147.5 21 154 17.8671 154 14.1077C154 10.3483 148.944 10.035 147.5 12.9764Z" fill="#C41512"/>
</g>
<defs>
<clipPath id="clip0_115_60">
<rect width="393" height="72" fill="white"/>
</clipPath>
</defs>
</svg>

<svg xmlns="http://www.w3.org/2000/svg" width="393" height="72" fill="none"><g clip-path="url(#a)"><path fill="#f2ece6" d="M393 72H0V0h393zM286.887 24.48q-2.6 1.24-3.96 3.24a7.4 7.4 0 0 0-1.361 4.32q0 2.48 1.441 4.44 1.44 1.92 4.16 3.28v7.12q-2.52-1.04-4.12-2.36l-1.32 1.8q.8.72 2.2 1.56 1.44.84 3.24 1.52v6.08h7.96v-4.4q1.32.12 2.8.12h.479v4.28h7.96V49.8q2.961-1.2 4.521-3.24a7.6 7.6 0 0 0 1.559-4.68q0-2.68-1.559-4.56-1.52-1.88-4.561-3.16v-7q1.92.88 3.08 1.84l1.361-1.8q-.64-.6-1.8-1.28a20 20 0 0 0-2.641-1.28v-6.16h-7.96v4.4q-1.32-.12-2.84-.12h-.679v-4.28h-7.96zM84.073 42.6q0 4.36 3.08 6.48 3.12 2.12 10.36 2.12 4.8 0 7.68-.72 2.88-.76 4.32-2.6 1.44-1.881 1.44-5.28V23h-2.36v19.6q0 5.44-4.64 5.44-2.08 0-3.36-1.28-1.24-1.32-1.24-4.16V23h-15.28zm163.142-19.84q-4.48 0-7.24.72t-5 2.96q-3.48 3.44-3.48 10.52 0 6.68 3.88 10.56 1.96 1.96 4.68 2.84 2.76.84 7.16.84l4.04-.04q7.28-.16 13.04-.16V37.32h-12.24V48.4q-3.12 0-4.6-3.88-1.12-3.04-1.12-7.56 0-2.76.48-5.16.52-2.72 1.72-4.36 1.4-1.88 3.52-1.88 2.28 0 3.76 1.4 1.48 1.36 2.16 3.28.72 1.88.88 3.68h2.28q-.12-2.12-.92-4.32-.76-2.24-2.12-3.8-1.641-1.88-4.2-2.44-2.52-.6-6.68-.6M47.12 51h14.04V23H47.12zm14.04-14.04L69.44 51h14.12l-8.88-14.04 7-13.96H67.72zM113.175 51h2.439V32.36l14 18.64h9.401V23h-2.401v14l-11.679-14h-11.76zm28.086 0h13.04V23h-13.04zm15.312 0h29.24v-2.4h-15.2V23h-14.04zm31.524 0h13.04V23h-13.04zm15.312 0h2.44V32.36l14 18.64h9.4V23h-2.4v14l-11.68-14h-11.76zm63.125 0h13.04V23h-13.04zm43.978-25.64h10.52V51h14V25.36h10.56V23h-35.08zm-14.906 17.16q4.281 1.2 4.281 3.36 0 1.239-1.2 1.92t-3.56.68v-6.12zm2.76-10.68-1.04-.28q-2.8-.76-3.8-1.52-1-.8-1-1.84 0-1.36 1.321-2.12 1.36-.8 3.88-.8h.639zM154 14.107c0-3.759-5.056-4.072-6.5-1.13-1.444-2.942-6.5-2.629-6.5 1.13S147.5 21 147.5 21c.001 0 6.5-3.134 6.5-6.893"/><path fill="#c41512" d="M147.5 12.976c-1.444-2.941-6.5-2.628-6.5 1.132S147.5 21 147.5 21s6.5-3.133 6.5-6.892-5.056-4.073-6.5-1.132"/></g><defs><clipPath id="a"><path fill="#fff" d="M0 0h393v72H0z"/></clipPath></defs></svg>
